web/public/assets/avg-conversion-rate.svg

<svg fill="none" height="44" viewBox="0 0 44 44" width="44" xmlns="http://www.w3.org/2000/svg" xmlns:xlink="http://www.w3.org/1999/xlink"><clipPath id="a"><path d="m10.5527 12h24.6833v20h-24.6833z"/></clipPath><rect fill="#f1f1f1" height="44" rx="22" width="44"/><g clip-path="url(#a)"><path d="m32.4944 26.9333-.3833-1.6666c-.0167-.0771-.0486-.15-.0939-.2146-.0453-.0645-.103-.1193-.1698-.1613-.0667-.0419-.1412-.07-.219-.0828-.0778-.0127-.1573-.0098-.234.0087l-1.6667.375c-.077.0167-.1499.0486-.2145.0938-.0645.0453-.1194.103-.1613.1698s-.0701.1412-.0828.219-.0098.1574.0086.234c.0358.1545.1312.2886.2655.3729s.2965.112.4512.0771l.2667-.0583c-.8674 1.2037-2.0365 2.1578-3.3896 2.7663-1.3532.6086-2.8427.8501-4.3188.7004-.0784-.0093-.1579-.0027-.2337.0193-.0758.0219-.1465.0588-.2079.1085-.0613.0497-.1121.1112-.1493.1809-.0372.0696-.0602.146-.0674.2246-.0163.158.0306.316.1306.4394s.2448.2021.4027.2189c.3295.0333.6605.05.9917.05 1.5384-.0049 3.0534-.3773 4.4189-1.0861 1.3654-.7088 2.5418-1.7335 3.4311-2.9889l.0583.2667c.0304.1315.1049.2486.2109.3319.1061.0834.2375.128.3725.1264h.1333c.1551-.0376.2893-.1347.3734-.2703.0842-.1357.1117-.2989.0766-.4547zm-14.5417-1.7166h-4.5333c-.7377-.0202-1.4533.2524-1.9905.7584-.5372.5059-.8522 1.204-.8762 1.9416v2.5583c0 .201.0398.4.1169.5855.0772.1856.1902.3541.3327.4958s.3116.2539.4976.33c.186.0762.3852.1148.5862.1137h7.2c.4044 0 .7923-.1607 1.0783-.4467s.4467-.6738.4467-1.0783v-2.5583c-.024-.7361-.3378-1.4329-.8732-1.9386s-1.2489-.7794-1.9852-.7614zm1.6667 5.2583c0 .0884-.0351.1732-.0976.2357s-.1473.0976-.2357.0976h-7.2c-.0445.0011-.0887-.0067-.1302-.0229-.0414-.0163-.0791-.0406-.1109-.0717-.0319-.0311-.0572-.0682-.0745-.1092-.0172-.041-.0261-.085-.0261-.1295v-2.5583c.0258-.4186.2149-.8103.5266-1.0908.3117-.2806.7211-.4275 1.1401-.4092h4.5416c.4195-.0205.8301.1257 1.1423.4067.3122.2809.5007.6739.5244 1.0933zm-3.9333-11.575c-.7205 0-1.4115.2862-1.921.7957s-.7957 1.2005-.7957 1.921c-.0018.7571.2028 1.5004.5917 2.15.2149.3757.5237.6893.8962.9098.3725.2206.7959.3407 1.2288.3485 1.7583 0 2.7083-1.7583 2.7083-3.4083 0-.7191-.2851-1.4088-.7927-1.9181-.5077-.5092-1.1966-.7964-1.9156-.7986zm0 4.925c-1.15 0-1.5167-1.4917-1.5167-2.2083 0-.4023.1598-.788.4442-1.0725.2845-.2844.6702-.4442 1.0725-.4442.4022 0 .788.1598 1.0724.4442.2844.2845.4442.6702.4442 1.0725.0167.9166-.475 2.2083-1.5166 2.2083z" fill="#1a1a1a"/><path d="m26.3362 13.1333c-.0445.1523-.1475.2808-.2865.3573s-.3027.0949-.4551.0511c-1.4937-.4473-3.083-.4665-4.587-.0555-1.5041.411-2.8627 1.2358-3.9214 2.3805h.3084c.0866-.0389.1812-.0567.276-.0519s.1872.0321.2694.0795c.0823.0474.1521.1137.2037.1934.0517.0797.0837.1705.0934.2649.0097.0945-.0031.1899-.0374.2784-.0344.0885-.0892.1676-.1601.2308-.0708.0632-.1557.1087-.2475.1327-.0919.024-.1882.0259-.2809.0055l-1.6666.1667h-.0917c-.1479.0026-.2912-.051-.4011-.15-.1098-.099-.1779-.236-.1906-.3834l-.175-1.6666c-.0092-.0815-.0016-.164.0223-.2424.0239-.0785.0637-.1511.1168-.2136s.1184-.1134.192-.1497c.0735-.0362.1537-.057.2356-.061.1566-.014.3125.034.434.1338.1216.0997.1991.2432.216.3995v.2334c1.2132-1.3042 2.7654-2.2452 4.4829-2.7176s3.5325-.4577 5.2421.0426c.1523.0445.2808.1475.3573.2865s.0949.3026.051.4551z" fill="#1a1a1a"/><g fill="#2667ff"><path d="m29.877 13.1417c-1.0618-.0017-2.1002.3117-2.9839.9004-.8836.5887-1.5728 1.4262-1.9802 2.4067-.4075.9805-.515 2.0598-.3088 3.1014.2061 1.0416.7166 1.9986 1.4668 2.75s1.7064 1.2633 2.7477 1.4711c1.0412.2077 2.1207.1019 3.1018-.304.9811-.406 1.8198-1.0938 2.4099-1.9765.59-.8828.905-1.9207.905-2.9825 0-1.4219-.5643-2.7856-1.5689-3.7918-1.0047-1.0062-2.3676-1.5726-3.7894-1.5748zm0 9.525c-.8241 0-1.6297-.2444-2.3149-.7022-.6852-.4579-1.2193-1.1086-1.5346-1.87-.3154-.7613-.3979-1.5991-.2371-2.4074.1607-.8082.5576-1.5507 1.1403-2.1334s1.3251-.9795 2.1334-1.1403c.8082-.1608 1.646-.0783 2.4074.2371.7613.3154 1.4121.8494 1.8699 1.5346.4579.6852.7022 1.4908.7022 2.3149 0 .5472-.1078 1.089-.3171 1.5945-.2094.5055-.5164.9649-.9033 1.3518s-.8462.6938-1.3517.9032c-.5056.2094-1.0474.3172-1.5945.3172z"/><path d="m31.7023 19.5917c-.0146.3574-.1405.7013-.3601.9837-.2197.2824-.522.4891-.8649.5913v.1583c0 .1591-.0632.3117-.1757.4243-.1125.1125-.2651.1757-.4243.1757-.1591 0-.3117-.0632-.4242-.1757-.1125-.1126-.1758-.2652-.1758-.4243v-.1583c-.3918-.1226-.7299-.3755-.9583-.7167-.0432-.0651-.0732-.1381-.0882-.2148s-.0148-.1556.0007-.2322.0459-.1494.0895-.2143c.0436-.0648.0996-.1205.1647-.1637s.1381-.0732.2148-.0882.1556-.0148.2322.0007c.0766.0154.1494.0459.2143.0895.0648.0436.1205.0996.1637.1647.0659.0869.1518.1566.2505.203s.2072.0683.3161.0636c.3417 0 .6334-.2166.6334-.4833s0-.35-.7584-.5c-.3689-.0592-.7244-.1833-1.05-.3667-.2101-.1414-.3802-.3345-.4941-.5607-.1138-.2262-.1675-.4779-.1559-.7309.0052-.361.1274-.7106.3483-.9961.221-.2855.5286-.4916.8767-.5873v-.1666c0-.1592.0633-.3118.1758-.4243s.2651-.1757.4242-.1757c.1592 0 .3118.0632.4243.1757s.1757.2651.1757.4243v.1583c.3919.1226.73.3755.9584.7167.0873.1315.1188.2923.0875.447-.0312.1547-.1227.2907-.2542.378s-.2923.1188-.447.0875-.2907-.1227-.378-.2542c-.0668-.0859-.1529-.1548-.2514-.2011-.0985-.0464-.2065-.0688-.3153-.0656-.3416 0-.6333.225-.6333.4834 0 .2583 0 .35.7583.5.3686.0605.7239.1845 1.05.3666.2115.1441.3823.3401.4962.5692.1138.2291.1668.4837.1538.7392z"/></g></g></svg>

<svg width="44" height="44" viewBox="0 0 44 44" fill="none" xmlns="http://www.w3.org/2000/svg">
<rect width="44" height="44" rx="22" fill="#F1F1F1"/>
<g clip-path="url(#clip0_133_10035)">
<path d="M32.4944 26.9333L32.1111 25.2667C32.0944 25.1896 32.0625 25.1167 32.0172 25.0521C31.9719 24.9876 31.9142 24.9328 31.8474 24.8908C31.7807 24.8489 31.7062 24.8208 31.6284 24.808C31.5506 24.7953 31.4711 24.7982 31.3944 24.8167L29.7277 25.1917C29.6507 25.2084 29.5778 25.2403 29.5132 25.2855C29.4487 25.3308 29.3938 25.3885 29.3519 25.4553C29.31 25.5221 29.2818 25.5965 29.2691 25.6743C29.2564 25.7521 29.2593 25.8317 29.2777 25.9083C29.3135 26.0628 29.4089 26.1969 29.5432 26.2812C29.6775 26.3655 29.8397 26.3932 29.9944 26.3583L30.2611 26.3C29.3937 27.5037 28.2246 28.4578 26.8715 29.0663C25.5183 29.6749 24.0288 29.9164 22.5527 29.7667C22.4743 29.7574 22.3948 29.764 22.319 29.786C22.2432 29.8079 22.1725 29.8448 22.1111 29.8945C22.0498 29.9442 21.999 30.0057 21.9618 30.0754C21.9246 30.145 21.9016 30.2214 21.8944 30.3C21.8781 30.458 21.925 30.616 22.025 30.7394C22.125 30.8628 22.2698 30.9415 22.4277 30.9583C22.7572 30.9916 23.0882 31.0083 23.4194 31.0083C24.9578 31.0034 26.4728 30.631 27.8383 29.9222C29.2037 29.2134 30.3801 28.1887 31.2694 26.9333L31.3277 27.2C31.3581 27.3315 31.4326 27.4486 31.5386 27.5319C31.6447 27.6153 31.7761 27.6599 31.9111 27.6583H32.0444C32.1995 27.6207 32.3337 27.5236 32.4178 27.388C32.502 27.2523 32.5295 27.0891 32.4944 26.9333ZM17.9527 25.2167H13.4194C12.6817 25.1965 11.9661 25.4691 11.4289 25.9751C10.8917 26.481 10.5767 27.1791 10.5527 27.9167V30.475C10.5527 30.676 10.5925 30.875 10.6696 31.0605C10.7468 31.2461 10.8598 31.4146 11.0023 31.5563C11.1448 31.698 11.3139 31.8102 11.4999 31.8863C11.6859 31.9625 11.8851 32.0011 12.0861 32H19.2861C19.6905 32 20.0784 31.8393 20.3644 31.5533C20.6504 31.2673 20.8111 30.8795 20.8111 30.475V27.9167C20.7871 27.1806 20.4733 26.4838 19.9379 25.9781C19.4025 25.4724 18.689 25.1987 17.9527 25.2167ZM19.6194 30.475C19.6194 30.5634 19.5843 30.6482 19.5218 30.7107C19.4593 30.7732 19.3745 30.8083 19.2861 30.8083H12.0861C12.0416 30.8094 11.9974 30.8016 11.9559 30.7854C11.9145 30.7691 11.8768 30.7448 11.845 30.7137C11.8131 30.6826 11.7878 30.6455 11.7705 30.6045C11.7533 30.5635 11.7444 30.5195 11.7444 30.475V27.9167C11.7702 27.4981 11.9593 27.1064 12.271 26.8259C12.5827 26.5453 12.9921 26.3984 13.4111 26.4167H17.9527C18.3722 26.3962 18.7828 26.5424 19.095 26.8234C19.4072 27.1043 19.5957 27.4973 19.6194 27.9167V30.475ZM15.6861 18.9C14.9656 18.9 14.2746 19.1862 13.7651 19.6957C13.2556 20.2052 12.9694 20.8962 12.9694 21.6167C12.9676 22.3738 13.1722 23.1171 13.5611 23.7667C13.776 24.1424 14.0848 24.456 14.4573 24.6765C14.8298 24.8971 15.2532 25.0172 15.6861 25.025C17.4444 25.025 18.3944 23.2667 18.3944 21.6167C18.3944 20.8976 18.1093 20.2079 17.6017 19.6986C17.094 19.1894 16.4051 18.9022 15.6861 18.9ZM15.6861 23.825C14.5361 23.825 14.1694 22.3333 14.1694 21.6167C14.1694 21.2144 14.3292 20.8287 14.6136 20.5442C14.8981 20.2598 15.2838 20.1 15.6861 20.1C16.0883 20.1 16.4741 20.2598 16.7585 20.5442C17.0429 20.8287 17.2027 21.2144 17.2027 21.6167C17.2194 22.5333 16.7277 23.825 15.6861 23.825Z" fill="#1A1A1A"/>
<path d="M26.3362 13.1333C26.2917 13.2856 26.1887 13.4141 26.0497 13.4906C25.9107 13.5671 25.747 13.5855 25.5946 13.5417C24.1009 13.0944 22.5116 13.0752 21.0076 13.4862C19.5035 13.8972 18.1449 14.722 17.0862 15.8667H17.3946C17.4812 15.8278 17.5758 15.81 17.6706 15.8148C17.7654 15.8196 17.8578 15.8469 17.94 15.8943C18.0223 15.9417 18.0921 16.008 18.1437 16.0877C18.1954 16.1674 18.2274 16.2582 18.2371 16.3526C18.2468 16.4471 18.234 16.5425 18.1997 16.631C18.1653 16.7195 18.1105 16.7986 18.0396 16.8618C17.9688 16.925 17.8839 16.9705 17.7921 16.9945C17.7002 17.0185 17.6039 17.0204 17.5112 17L15.8446 17.1667H15.7529C15.605 17.1693 15.4617 17.1157 15.3518 17.0167C15.242 16.9177 15.1739 16.7807 15.1612 16.6333L14.9862 14.9667C14.977 14.8852 14.9846 14.8027 15.0085 14.7243C15.0324 14.6458 15.0722 14.5732 15.1253 14.5107C15.1784 14.4482 15.2437 14.3973 15.3173 14.361C15.3908 14.3248 15.471 14.304 15.5529 14.3C15.7095 14.286 15.8654 14.334 15.9869 14.4338C16.1085 14.5335 16.186 14.677 16.2029 14.8333V15.0667C17.4161 13.7625 18.9683 12.8215 20.6858 12.3491C22.4033 11.8767 24.2183 11.8914 25.9279 12.3917C26.0802 12.4362 26.2087 12.5392 26.2852 12.6782C26.3617 12.8172 26.3801 12.9808 26.3362 13.1333Z" fill="#1A1A1A"/>
<path d="M29.877 13.1417C28.8152 13.14 27.7768 13.4534 26.8931 14.0421C26.0095 14.6308 25.3203 15.4683 24.9129 16.4488C24.5054 17.4293 24.3979 18.5086 24.6041 19.5502C24.8102 20.5918 25.3207 21.5488 26.0709 22.3002C26.8211 23.0516 27.7773 23.5635 28.8186 23.7713C29.8598 23.979 30.9393 23.8732 31.9204 23.4673C32.9015 23.0613 33.7402 22.3735 34.3303 21.4908C34.9203 20.608 35.2353 19.5701 35.2353 18.5083C35.2353 17.0864 34.671 15.7227 33.6664 14.7165C32.6617 13.7103 31.2988 13.1439 29.877 13.1417ZM29.877 22.6667C29.0529 22.6667 28.2473 22.4223 27.5621 21.9645C26.8769 21.5066 26.3428 20.8559 26.0275 20.0945C25.7121 19.3332 25.6296 18.4954 25.7904 17.6871C25.9511 16.8789 26.348 16.1364 26.9307 15.5537C27.5134 14.971 28.2558 14.5742 29.0641 14.4134C29.8723 14.2526 30.7101 14.3351 31.4715 14.6505C32.2328 14.9659 32.8836 15.4999 33.3414 16.1851C33.7993 16.8703 34.0436 17.6759 34.0436 18.5C34.0436 19.0472 33.9358 19.589 33.7265 20.0945C33.5171 20.6 33.2101 21.0594 32.8232 21.4463C32.4363 21.8332 31.977 22.1401 31.4715 22.3495C30.9659 22.5589 30.4241 22.6667 29.877 22.6667Z" fill="#2667FF"/>
<path d="M31.7023 19.5917C31.6877 19.9491 31.5618 20.293 31.3422 20.5754C31.1225 20.8578 30.8202 21.0645 30.4773 21.1667V21.325C30.4773 21.4841 30.4141 21.6367 30.3016 21.7493C30.1891 21.8618 30.0365 21.925 29.8773 21.925C29.7182 21.925 29.5656 21.8618 29.4531 21.7493C29.3406 21.6367 29.2773 21.4841 29.2773 21.325V21.1667C28.8855 21.0441 28.5474 20.7912 28.319 20.45C28.2758 20.3849 28.2458 20.3119 28.2308 20.2352C28.2158 20.1585 28.216 20.0796 28.2315 20.003C28.247 19.9264 28.2774 19.8536 28.321 19.7887C28.3646 19.7239 28.4206 19.6682 28.4857 19.625C28.5508 19.5818 28.6238 19.5518 28.7005 19.5368C28.7772 19.5218 28.8561 19.522 28.9327 19.5375C29.0093 19.5529 29.0821 19.5834 29.147 19.627C29.2118 19.6706 29.2675 19.7266 29.3107 19.7917C29.3766 19.8786 29.4625 19.9483 29.5612 19.9947C29.6599 20.0411 29.7684 20.063 29.8773 20.0583C30.219 20.0583 30.5107 19.8417 30.5107 19.575C30.5107 19.3083 30.5107 19.225 29.7523 19.075C29.3834 19.0158 29.0279 18.8917 28.7023 18.7083C28.4922 18.5669 28.3221 18.3738 28.2082 18.1476C28.0944 17.9214 28.0407 17.6697 28.0523 17.4167C28.0575 17.0557 28.1797 16.7061 28.4006 16.4206C28.6216 16.1351 28.9292 15.929 29.2773 15.8333V15.6667C29.2773 15.5075 29.3406 15.3549 29.4531 15.2424C29.5656 15.1299 29.7182 15.0667 29.8773 15.0667C30.0365 15.0667 30.1891 15.1299 30.3016 15.2424C30.4141 15.3549 30.4773 15.5075 30.4773 15.6667V15.825C30.8692 15.9476 31.2073 16.2005 31.4357 16.5417C31.523 16.6732 31.5545 16.834 31.5232 16.9887C31.492 17.1434 31.4005 17.2794 31.269 17.3667C31.1375 17.454 30.9767 17.4855 30.822 17.4542C30.6673 17.4229 30.5313 17.3315 30.444 17.2C30.3772 17.1141 30.2911 17.0452 30.1926 16.9989C30.0941 16.9525 29.9861 16.9301 29.8773 16.9333C29.5357 16.9333 29.244 17.1583 29.244 17.4167C29.244 17.675 29.244 17.7667 30.0023 17.9167C30.3709 17.9772 30.7262 18.1012 31.0523 18.2833C31.2638 18.4274 31.4346 18.6234 31.5485 18.8525C31.6623 19.0816 31.7153 19.3362 31.7023 19.5917Z" fill="#2667FF"/>
</g>
<defs>
<clipPath id="clip0_133_10035">
<rect width="24.6833" height="20" fill="white" transform="translate(10.5527 12)"/>
</clipPath>
</defs>
</svg>
